icons/draw.svg

<svg fill="none" height="28" viewBox="0 0 28 28" width="28" xmlns="http://www.w3.org/2000/svg"><path d="m19.3134 4.6328c.6186-.43424 1.3437-.71345 2.0948-.61231 1.0952.14763 2.0038.63094 2.6172 1.4209.6051.77937.8493 1.76112.8115 2.78418-.074 2.00193-1.219 4.32943-3.2881 6.42383.0524.0056.1073.0132.165.0186.5381.0494 1.3846.0842 2.0332.1962.3382.0585.7192.1513 1.0577.3223.3009.152.6439.4068.8427.8213l.0762.1875.0439.1738c.0718.398-.063.7454-.1337.9082-.1016.2337-.246.4655-.3789.6631-.1368.2033-.2953.4197-.4395.6182-.1495.2057-.2895.3992-.4131.5859-.0865.1307-.1563.2475-.2119.3496.4014.188.643.6284.5596 1.085-.0993.5432-.6209.9029-1.1641.8037-.3726-.0681-.7791-.2134-1.0908-.5322-.3412-.3491-.4481-.7804-.4307-1.1621.0159-.3487.1328-.6671.2481-.9141.1198-.2567.2731-.5072.4228-.7334.1509-.2279.3142-.4549.4619-.6582.14-.1926.2617-.3621.3672-.5166-.0476-.0103-.1005-.0203-.1582-.0303-.5502-.095-1.155-.1095-1.876-.1758-.326-.0299-.679-.0732-.9951-.1523-.2815-.0705-.7173-.2106-1.0332-.5596-.1777-.1963-.3081-.4494-.3476-.747-.038-.286.0166-.5479.0996-.7637.1556-.4049.4625-.7818.8135-1.1328 1.888-1.888 2.7203-3.79507 2.7705-5.15335.0246-.66762-.1376-1.15609-.3916-1.4834-.246-.31671-.6501-.57673-1.3047-.66504-.0806-.01086-.304.00354-.6787.2666-.3679.25826-.8071.70686-1.2676 1.39063-.9189 1.36446-1.8374 3.53776-2.4395 6.54786-.6232 3.1157-1.9259 5.9536-3.5752 7.6426-.8267.8466-1.8189 1.4819-2.9277 1.6093-1.1552.1327-2.25073-.3063-3.18555-1.2412-.77743-.7775-1.19749-1.6729-1.30175-2.6211-.1022-.93.10623-1.8423.46679-2.6718.71343-1.6409 2.09673-3.1384 3.41797-4.1953 1.72784-1.3824 3.09064-2.98148 3.73244-4.30278.324-.66727.4149-1.16247.3789-1.47852-.0277-.24218-.126-.42008-.4287-.56933-.324-.15974-.5357-.15905-.6865-.12305-.1714.04089-.3875.15842-.6534.42578-.562.56532-1.0816 1.51656-1.6777 2.68067-.55535 1.08453-1.18103 2.36303-1.92383 3.27543-.37981.4664-.84321.9066-1.41504 1.1777-.60006.2845-1.26975.3585-1.97558.1572-.90334-.2578-1.47387-.8821-1.75879-1.6367-.26634-.7057-.2808-1.5057-.19629-2.2393.16979-1.47316.78635-3.06509 1.3584-4.07809.27162-.48065.88151-.65031 1.3623-.3789.48085.27154.65034.88143.37891 1.3623-.46994.83218-.98025 2.16956-1.11328 3.32419-.0668.5801-.02644 1.0189.08105 1.3037.08914.2361.21326.3553.43653.419.22745.0648.39831.0415.57031-.0401.20047-.095.4411-.2903.7207-.6337.57588-.7074 1.09169-1.74696 1.69434-2.92387.56198-1.09747 1.21692-2.35183 2.04007-3.17969.4267-.42921.9566-.80561 1.6074-.96093.6711-.16007 1.3583-.05776 2.0342.27539.9071.4472 1.4267 1.211 1.5322 2.13574.097.85107-.164 1.7486-.5674 2.5791-.8133 1.67446-2.4106 3.49286-4.2822 4.99026-1.17869.9429-2.29545 2.1966-2.83205 3.4306-.26427.6079-.36846 1.1647-.31445 1.6563.05204.4735.25716.9534.72949 1.4258.5856.5854 1.10079.7188 1.54301.6679.4887-.0563 1.0816-.3611 1.7246-1.0195 1.2902-1.3214 2.4671-3.7537 3.0439-6.6377.6383-3.1916 1.638-5.63132 2.7432-7.27245.5514-.81879 1.1509-1.47104 1.7763-1.91015z" fill="#fff" opacity=".9"/></svg>

<svg width="28" height="28" viewBox="0 0 28 28" fill="none" xmlns="http://www.w3.org/2000/svg">
<g opacity="0.9">
<path d="M19.3134 4.6328C19.932 4.19856 20.6571 3.91935 21.4082 4.02049C22.5034 4.16812 23.412 4.65143 24.0254 5.44139C24.6305 6.22076 24.8747 7.20251 24.8369 8.22557C24.7629 10.2275 23.6179 12.555 21.5488 14.6494C21.6012 14.655 21.6561 14.6626 21.7138 14.668C22.2519 14.7174 23.0984 14.7522 23.747 14.8642C24.0852 14.9227 24.4662 15.0155 24.8047 15.1865C25.1056 15.3385 25.4486 15.5933 25.6474 16.0078L25.7236 16.1953L25.7675 16.3691C25.8393 16.7671 25.7045 17.1145 25.6338 17.2773C25.5322 17.511 25.3878 17.7428 25.2549 17.9404C25.1181 18.1437 24.9596 18.3601 24.8154 18.5586C24.6659 18.7643 24.5259 18.9578 24.4023 19.1445C24.3158 19.2752 24.246 19.392 24.1904 19.4941C24.5918 19.6821 24.8334 20.1225 24.75 20.5791C24.6507 21.1223 24.1291 21.482 23.5859 21.3828C23.2133 21.3147 22.8068 21.1694 22.4951 20.8506C22.1539 20.5015 22.047 20.0702 22.0644 19.6885C22.0803 19.3398 22.1972 19.0214 22.3125 18.7744C22.4323 18.5177 22.5856 18.2672 22.7353 18.041C22.8862 17.8131 23.0495 17.5861 23.1972 17.3828C23.3372 17.1902 23.4589 17.0207 23.5644 16.8662C23.5168 16.8559 23.4639 16.8459 23.4062 16.8359C22.856 16.7409 22.2512 16.7264 21.5302 16.6601C21.2042 16.6302 20.8512 16.5869 20.5351 16.5078C20.2536 16.4373 19.8178 16.2972 19.5019 15.9482C19.3242 15.7519 19.1938 15.4988 19.1543 15.2012C19.1163 14.9152 19.1709 14.6533 19.2539 14.4375C19.4095 14.0326 19.7164 13.6557 20.0674 13.3047C21.9554 11.4167 22.7877 9.50963 22.8379 8.15135C22.8625 7.48373 22.7003 6.99526 22.4463 6.66795C22.2003 6.35124 21.7962 6.09122 21.1416 6.00291C21.061 5.99205 20.8376 6.00645 20.4629 6.26951C20.095 6.52777 19.6558 6.97637 19.1953 7.66014C18.2764 9.0246 17.3579 11.1979 16.7558 14.208C16.1326 17.3237 14.8299 20.1616 13.1806 21.8506C12.3539 22.6972 11.3617 23.3325 10.2529 23.4599C9.0977 23.5926 8.00217 23.1536 7.06735 22.2187C6.28992 21.4412 5.86986 20.5458 5.7656 19.5976C5.6634 18.6676 5.87183 17.7553 6.23239 16.9258C6.94582 15.2849 8.32912 13.7874 9.65036 12.7305C11.3782 11.3481 12.741 9.74902 13.3828 8.42772C13.7068 7.76045 13.7977 7.26525 13.7617 6.9492C13.734 6.70702 13.6357 6.52912 13.333 6.37987C13.009 6.22013 12.7973 6.22082 12.6465 6.25682C12.4751 6.29771 12.259 6.41524 11.9931 6.6826C11.4311 7.24792 10.9115 8.19916 10.3154 9.36327C9.76005 10.4478 9.13437 11.7263 8.39157 12.6387C8.01176 13.1051 7.54836 13.5453 6.97653 13.8164C6.37647 14.1009 5.70678 14.1749 5.00095 13.9736C4.09761 13.7158 3.52708 13.0915 3.24216 12.3369C2.97582 11.6312 2.96136 10.8312 3.04587 10.0976C3.21566 8.62444 3.83222 7.03251 4.40427 6.01951C4.67589 5.53886 5.28578 5.3692 5.76657 5.64061C6.24742 5.91215 6.41691 6.52204 6.14548 7.00291C5.67554 7.83509 5.16523 9.17247 5.0322 10.3271C4.9654 10.9072 5.00576 11.346 5.11325 11.6308C5.20239 11.8669 5.32651 11.9861 5.54978 12.0498C5.77723 12.1146 5.94809 12.0913 6.12009 12.0097C6.32056 11.9147 6.56119 11.7194 6.84079 11.376C7.41667 10.6686 7.93248 9.62904 8.53513 8.45213C9.09711 7.35466 9.75205 6.1003 10.5752 5.27244C11.0019 4.84323 11.5318 4.46683 12.1826 4.31151C12.8537 4.15144 13.5409 4.25375 14.2168 4.5869C15.1239 5.0341 15.6435 5.7979 15.749 6.72264C15.846 7.57371 15.585 8.47124 15.1816 9.30174C14.3683 10.9762 12.771 12.7946 10.8994 14.292C9.72071 15.2349 8.60395 16.4886 8.06735 17.7226C7.80308 18.3305 7.69889 18.8873 7.7529 19.3789C7.80494 19.8524 8.01006 20.3323 8.48239 20.8047C9.06799 21.3901 9.58318 21.5235 10.0254 21.4726C10.5141 21.4163 11.107 21.1115 11.75 20.4531C13.0402 19.1317 14.2171 16.6994 14.7939 13.8154C15.4322 10.6238 16.4319 8.18408 17.5371 6.54295C18.0885 5.72416 18.688 5.07191 19.3134 4.6328Z" fill="white"/>
</g>
</svg>
